icons/1_Primary/Chaturbate.svg

<svg xmlns="http://www.w3.org/2000/svg" width="1024" height="1024" fill="none">
   <g clip-path="url(#a)">
      <path fill="#F8C18C" d="M512 1024c282.77 0 512-229.23 512-512S794.77 0 512 0 0 229.23 0 512s229.23 512 512 512Z"/>
      <path fill="#fff" d="M658.27 562.07c-8 49.49-58.4 97.49-94.54 97.49-46.51 0-64.33-33.13-64.33-76.26 0-34.15 11.4-74.24 28.22-108.89 132.64-10.37 197.46-75.16 197.46-128.16 0-38.59-34.65-71.25-103-71.25-92.06 0-159.37 76.22-189.55 167.78-81.75-19.31-143-71.42-146.09-154.5-61.35 29.71-87.59 58.9-87.59 85.13 0 50.48 96.07 89.57 225.26 100a369.185 369.185 0 0 0-9.41 80.16C414.76 656.94 464.25 749 578.07 749c84.14 0 138.07-82.05 138.1-133.93.01-33.12-20.3-53-57.9-53ZM611.6 394.29c11.4 0 19.31 6.92 19.31 15.34 0 14.84-23.19 35.64-89.44 40.58 20.27-32.67 46.01-55.92 70.13-55.92Z"/>
   </g>
   <defs>
      <clipPath id="a">
         <path fill="#fff" d="M0 0h1024v1024H0z"/>
      </clipPath>
   </defs>
</svg>

<svg width="1024" height="1024" viewBox="0 0 1024 1024" fill="none" xmlns="http://www.w3.org/2000/svg">
<g clip-path="url(#clip0_2_1794)">
<path d="M512 1024C794.77 1024 1024 794.77 1024 512C1024 229.23 794.77 0 512 0C229.23 0 0 229.23 0 512C0 794.77 229.23 1024 512 1024Z" fill="#F8C18C"/>
<path d="M658.27 562.07C650.27 611.56 599.87 659.56 563.73 659.56C517.22 659.56 499.4 626.43 499.4 583.3C499.4 549.15 510.8 509.06 527.62 474.41C660.26 464.04 725.08 399.25 725.08 346.25C725.08 307.66 690.43 275 622.08 275C530.02 275 462.71 351.22 432.53 442.78C350.78 423.47 289.53 371.36 286.44 288.28C225.09 317.99 198.85 347.18 198.85 373.41C198.85 423.89 294.92 462.98 424.11 473.41C418.053 499.706 414.898 526.586 414.7 553.57C414.76 656.94 464.25 749 578.07 749C662.21 749 716.14 666.95 716.17 615.07C716.18 581.95 695.87 562.07 658.27 562.07ZM611.6 394.29C623 394.29 630.91 401.21 630.91 409.63C630.91 424.47 607.72 445.27 541.47 450.21C561.74 417.54 587.48 394.29 611.6 394.29Z" fill="white"/>
</g>
<defs>
<clipPath id="clip0_2_1794">
<rect width="1024" height="1024" fill="white"/>
</clipPath>
</defs>
</svg>
